X:1
T:Title
%%score { ( 1 3 4 ) | 2 }
L:1/8
M:6/8
K:Ab
V:1 treble nm="Grand Piano"
V:3 treble 
V:4 treble 
V:2 bass 
V:1
 z3 z2[Q:1/4=87] [CE] | [CE][CA][DB] [Ec][Ec][Ec] | [Fd][FA][=EB] [_Ec]2 [Ec] | cB=A BcB | %4
 [CB][CA][DF] [CE]2 [CE] | [CE][CA][DB] [Ec][Ec][DB] |[M:7/8] [CA][Ec][_Ge] [Fd]3 [Fd] | %7
[M:13/16] [Fd][DF][Fd][Ec][CE]3/2[Ec] | [=DB][DF]3/2[_DG][CA]/-[CA]/-[CA]-<[CA] |[M:3/4] c4 z2 | %10
 c6 | d4 z2 | d6 | A3 .c3 |[M:7/8] e2 z z z z2 | AA3/2Acc3/2B |[M:5/8] [CA]-[CA]- [CA]3 |] %17
V:2
 z3 z2 [A,,A,] | [A,,A,][A,,E,][A,,E,] [A,,A,][A,,A,][A,,A,] | %2
 [A,,A,][A,,A,][A,,A,] [A,,A,]2 [A,,A,] | [E,A,E][E,G,D][E,_G,C] [E,=G,D][E,A,E][E,D] | %4
 [A,,E,][A,,E,][A,,A,] [A,,A,]2 [A,,A,] | [A,,A,][A,,E,][A,,E,] [A,,A,][A,,E,][A,,E,] | %6
[M:7/8] [A,,E,][A,,A,][C,A,] [D,A,]3 [D,A,] |[M:13/16] [D,A,][D,A,][D,A,][A,,A,][A,,A,]3/2[A,,A,] | %8
 [B,,F,][B,,B,]3/2[E,B,][A,,A,]/-[A,,A,]/-[A,,A,]-<[A,,A,] | %9
[M:3/4] [A,,A,][A,,A,] [A,,A,][A,,A,] DC | [A,,A,][A,,A,] [A,,A,] .[A,,A,]3 | %11
 [E,B,][E,B,] [E,E][E,B,] [A,E][G,E] | [E,G,E][E,A,] [E,B,] .[E,G,]3 | %13
 [A,,A,][A,,E,] [A,,E,][A,,A,] [A,,A,][C,A,] |[M:7/8] [D,A,][D,A,][D,A,] [D,A,]3 [D,D] | %15
 [E,CE][E,CE]3/2[E,CE][E,A,E][E,A,E]3/2[E,G,D] |[M:5/8] [A,,A,]-[A,,A,]- [A,,A,]3 |] %17
V:3
 x6 | x6 | x6 | x6 | x6 | x6 |[M:7/8] x7 |[M:13/16] x13/2 | x13/2 |[M:3/4] EF AE BA | EF .A2 FA | %11
 GA BG cB | z F G .E3 | CC CE E[_Ge] |[M:7/8] FF[Fd] [Fd]3 [FB] | x7 |[M:5/8] x5 |] %17
V:4
 x6 | x6 | x6 | x6 | x6 | x6 |[M:7/8] x7 |[M:13/16] x13/2 | x13/2 |[M:3/4] x6 | z2 z .E3 | x6 | %12
 x6 | x6 |[M:7/8] x7 | x7 |[M:5/8] x5 |] %17

